X:1
T:Maids When You're Young
M:6/8
L:1/8
K:G
 D| GGG EDD| BBB AF D-| D3- D2 D| GGG EDD| BAG d2 d| dcB cBA| BAG AFD|\
 GGG E3/2 c/2 A| FDF G2||
